!!!!SEGMENT: pl-kk--kk-i-484--002_anonim--laudate-dominum.krn
!!!cenid: 18xx:1370
!!!COM: Anonim
!!!COM-rismid: pe30004985
!!!CDT:
!!!CNT:
!!!OTL: Laudate Dominum
!!!PDT:
!!!AGN: Sacred
!!!SMS-siglum: PL-Kk
!!!SMS-shelfmark: Kk.I.484
!!!SMS-shelfwork: 002 W
!!!SMS-variant:
!!!SMS-altvar:
!!!NIFC-rismid: 1001141035
!!!URL-scan: http://repozytorium.nifc.pl/skany/pl-kk-nut--i-484
!!!ONB-nifc: UWAGA: utwory w zbiorze: 1. Graduale Dominus clamavi, 2. Laudate Dominum
!!!AIN: 1 alto 1 soprn
!!!key:
**kern	**text	**kern	**text
*part2	*part2	*part1	*part1
*staff2	*staff2	*staff1	*staff1
*Ialto	*	*Isoprn	*
*I"Alt	*	*I"Sopran	*
*I'A	*	*I'S	*
*clefC3	*	*clefC1	*
*k[b-]	*	*k[b-]	*
*F:	*	*F:	*
*M4/4	*	*M4/4	*
*met(c)	*	*met(c)	*
=1	=1	=1	=1
!LO:TX:a:t=3	!	!LO:TX:a:t=4.	!
!LO:TX:a:B:t=Lento	!	!LO:TX:a:B:t=Lento	!
!LO:TX:a:B:t=2m Laudate D(omi)num	!	!LO:TX:a:B:t=2m Laudate D(omi)num	!
0r	.	00r	.
=2	=2	=2	=2
.	.	.	.
=3	=3	=3	=3
1r	.	.	.
=4	=4	=4	=4
2r	.	.	.
4r	.	.	.
!LO:TX:t=P:problem=4,8,16\ left or right&colon; global	!	!	!
4f\	Lau-	.	.
=5!|:	=5!|:	=5!|:	=5!|:
*>[A,A1,A2]	*	*>[A,A1,A2]	*
!	!	!LO:TX:a:t=1	!
8.f\	-da-	1r	.
16f\	-te	.	.
8.a\	Do-	.	.
16a\	-mi-	.	.
4a\	-num	.	.
8.cc\	om-	.	.
16cc\	-nes	.	.
=6	=6	=6	=6
!LO:TX:a:t=P:problem=brak początku ligatury	!	!	!
[1cc	gen-	2r	.
.	.	4r	.
.	.	4c/	Lau-
!LO:LB:g=original	!	!	!
=7	=7	=7	=7
!	!	!LO:TX:t=P:problem=4,8,16\ left or right&colon; global	!
1cc]	.	8.a\	-da-
.	.	16a\	-te
.	.	8.a\	e-
.	.	16a\	-um
.	.	8.b-\	om-
.	.	16b-\	-nes
.	.	8.b-\	po-
.	.	16b-\	-pu-
!	!	!LO:LB:g=original	!
=8	=8	=8	=8
4cc\	-tes	4a\	-li.
4r	.	4r	.
2r	.	2r	.
=9	=9	=9	=9
!LO:TX:a:t=2	!	!	!
0r	.	2r	.
.	.	4r	.
.	.	4a\	Lau-
=10	=10	=10	=10
.	.	8.a\	-da-
.	.	16a\	-te
.	.	8.cc\	Do-
.	.	16cc\	-mi-
.	.	4cc\	-num
.	.	8.ff\	om-
.	.	16ff\	-nes
=11	=11	=11	=11
2r	.	[1ff	gen-
4r	.	.	.
4a\	Lau-	.	.
=12	=12	=12	=12
8.b-\	-da-	1ff]	.
16b-\	-te	.	.
8.b-\	e-	.	.
16b-\	-um	.	.
8.cc\	om-	.	.
16cc\	-nes	.	.
8.cc\	po-	.	.
16cc\	-pu-	.	.
!LO:LB:g=original	!	!LO:LB:g=original	!
=13	=13	=13	=13
!LO:N:xstem	!	!	!
4b-\	-li	4ff\	-tes
4r	.	4r	.
2r	.	2r	.
=14	=14	=14	=14
2r	.	2r	.
4r	.	4r	.
8.f\	quo-	8.dd\	quo-
16f\	-ni-	16dd\	-ni-
=15	=15	=15	=15
4f\	-am	4dd\	-am
4f\	con-	4dd\	con-
4f#X\	-fir-	4dd\	-fir-
8.f#\	-ma-	8.dd\	-ma-
16f#\	-ta	16dd\	-ta
=16	=16	=16	=16
4g\	est	4dd\	est
8.g\	su-	8.ff\	su-
16g\	-per	16ee\	-per
8g\	nos	8dd\	nos
8r	.	8r	.
4f#X\	mi-	4dd\	mi-
!LO:LB:g=original	!	!LO:LB:g=original	!
=17	=17	=17	=17
4f#X\	-se-	4dd\	-se-
4f#\	-ri-	4dd\	-ri-
4g\	-cor-	4dd\	-cor-
8.g\	-di-	8.dd\	-di-
16g\	-a	16dd\	-a
=18	=18	=18	=18
2g#X\	e-	4dd\	e-
.	.	8.ff\L	.
.	.	16ee\Jk	.
8g#\	-jus	8dd\	-jus
8r	.	8r	.
4a-X\	et	4dd\	et
=19	=19	=19	=19
4a-X\	ve-	4dd\	ve-
8.a-\	-ri-	8dd\	-ri-
.	.	8dd\	-tas
16a-\	-tas	.	.
8.g\	Do-	8.dd\	Do-
16g\	-mi-	16dd\	-mi-
4f\	-ni	4dd\	-ni
!	!	!LO:LB:g=original	!
=20	=20	=20	=20
4e\	ma-	4gg\	ma-
8.g\	-net	8.cc\	-net
16g\	in	16cc\	in
!LO:LB:g=original	!	!LO:SIC:v:l:s=ae-	!
4c\	ae-	4cc\	e-
8.f\	-ter-	8.cc\	-ter-
16f\	-num	16cc\	-num
=21	=21	=21	=21
*	*	*	*
4.f\	in	4.dd-X\	in
!	!	!LO:SIC:v:l:s=ae-	!
8f\	ae-	8dd-\	e-
*2\right	*	*2\right	*
!	!	!	!
2e\	-ter-	2cc\	-ter-
=22	=22	=22	=22
*>A1	*	*>A1	*
8f\	-num	8a\	-num
8r	.	8r	.
!LO:TX:a:t=1mo	!	!LO:TX:a:t=1mo	!
4r	.	4r	.
4r	.	2r	.
4f\	lau	.	.
!	!	!LO:LB:g=original	!
=23:|!	=23:|!	=23:|!	=23:|!
*>A2	*	*>A2	*
8f\	num	8a\	num
8r	.	8r	.
!LO:TX:a:t=2do	!	!	!
4r	.	8.ff\L	lau-
.	.	16cc\Jk	.
4r	.	2cc\	-da,
4a\	lau-	.	.
!LO:LB:g=original	!	!	!
=24	=24	=24	=24
2b-\	-da-	4cc\	te
.	.	8.gg\L	lau-
.	.	16cc\Jk	.
4b-\	-te	2cc\	-da,
4b-\	lau-	.	.
=25	=25	=25	=25
2a\	-da-	4cc\	te
.	.	8.ff\L	lau-
.	.	16cc\Jk	.
4a\	-te	2cc\	-da
4a\	lau-	.	.
=26	=26	=26	=26
2b-\	-da-	4cc\	te
.	.	8.gg\	Do-
.	.	16cc\	-mi-
4b-\	-te	2cc\	-num
8.b-\	Do-	.	.
16b-\	-mi-	.	.
!	!	!LO:LB:g=original	!
=27	=27	=27	=27
4a\	-num	4cc\	.
4r	.	4r	.
2r	.	2r	.
=28	=28	=28	=28
!LO:TX:a:t=1	!	!LO:TX:a:t=1	!
1r	.	1r	.
!LO:LB:g=original	!	!	!
=29	=29	=29	=29
2r	.	2r	.
4r	.	4r	.
!	!	!LO:N:xstem	!
4a\	lau-	4ff#X\	Lau-
=30	=30	=30	=30
8.a\	-da-	8.ff#X\	-da-
16a\	-te	16ff#\	-te
8.a\	e-	8.ff#\	e-
16a\	-um	16ff#\	-um
8.a\	om-	8.ff#\	om-
16a\	-nes	16ff#\	-nes
8.a\	po-	8.ff#\	po-
16a\	-pu-	16ff#\	-pu-
!	!	!LO:LB:g=original	!
=31	=31	=31	=31
2.cc#X\	-li	1ee	-li
8.cc#\	quo-	.	.
16cc#\	-ni-	.	.
=32	=32	=32	=32
4ccn\	-am	1ee	lau-
4cc\	con-	.	.
!LO:LB:g=original	!	!	!
4cc\	-fir-	.	.
8.cc\	-ma-	.	.
16cc\	-ta	.	.
=33	=33	=33	=33
2bn\	est	1ee	-da-
8b\	su-	.	.
8b\	-per	.	.
8.b\	nos	.	.
16b\	mi-	.	.
=34	=34	=34	=34
4b-X\	-se-	2.ee\	-te
4b-\	-ri-	.	.
8.a\	-cor-	.	.
16a\	-di-	.	.
8.a\	-a	4ee\	lau-
16a\	e-	.	.
!LO:LB:g=original	!	!	!
=35	=35	=35	=35
!	!	!LO:N:xstem	!
4a\	-jus	4ff\	-da-
4f\	lau-	4ff\	-te
4f\	-da-	4dd\	lau-
4f\	-te	8.b-\	-da-
.	.	16b-\	-te
!	!	!LO:PB:g=original	!
=36	=36	=36	=36
4f\	Do-	4g\	Do-
8f\	-mi-	8g\	-mi-
8f\	-num	8a\	-num
8.e\	om-	8.b-\	om-
16e\	-nes	16b-\	-nes
8.g\	po-	8.b-\	po-
16g\	-pu-	16cc\	-pu-
=37	=37	=37	=37
8f\	-li	8a\	-li
8r	.	8r	.
4r	.	(8.ff\L	lau-
.	.	16cc\Jk)	.
4r	.	2cc\	-da-
4a\	lau-	.	.
!LO:PB:g=original	!	!	!
=38	=38	=38	=38
2b-\	-da-	4cc\	-te
.	.	(8.gg\L	lau-
.	.	16cc\Jk)	.
!LO:N:xstem	!	!	!
4b-\	-te	2cc\	-da-
4b-\	lau-	.	.
!	!	!LO:LB:g=original	!
=39	=39	=39	=39
2a\	-da-	4cc\	-te
.	.	8.ff\L	lau-
.	.	16cc\Jk	.
4a\	-te	2cc\	-da-
4a\	lau-	.	.
=40	=40	=40	=40
2b-\	-da-	4cc\	-te
.	.	8.gg\	Do-
.	.	16cc\	-mi-
!LO:N:xstem	!	!	!
4b-\	-te	[2cc\	-num
8.b-\	Do-	.	.
16b-\	-mi-	.	.
=41	=41	=41	=41
[4a\	-num	4cc\]	.
8a\]	.	4r	.
8r	.	.	.
4r	.	2r	.
4r	.	.	.
!LO:LB:g=original	!	!	!
=42	=42	=42	=42
!LO:TX:a:t=1	!	!LO:TX:a:t=1	!
1r	.	1r	.
=43	=43	=43	=43
2r	.	2r	.
4r	.	4r	.
!	!	!LO:N:xstem	!
4a\	lau-	4ff#X\	lau-
!	!	!LO:LB:g=original	!
=44	=44	=44	=44
8.a\	-da-	8ff#X\	-da-
.	.	8ff#\	-te
16a\	-te	.	.
8.a\	e-	8.ff#\	e-
16a\	-um	16ff#\	-um
8.a\	om-	8.ff#\	om-
16a\	-nes	16ff#\	-nes
8.a\	po-	8.ff#\	po-
16a\	-pu-	16ff#\	-pu-
=45	=45	=45	=45
2.cc#X\	-li	1ee	-li
8.cc#\	quo-	.	.
16cc#\	-ni-	.	.
!LO:LB:g=original	!	!	!
=46	=46	=46	=46
4ccn\	-am	1ee	lau-
4cc\	con-	.	.
4cc\	-fir-	.	.
8.cc\	-ma-	.	.
16cc\	-ta	.	.
=47	=47	=47	=47
2bn\	est	1ee	-da-
8.b\	su-	.	.
16b\	-per	.	.
8.b\	nos	.	.
16b\	mi-	.	.
=48	=48	=48	=48
4b-X\	-se-	2.ee\	-te
4b-\	-ri-	.	.
8.a\	-cor-	.	.
16a\	-di-	.	.
8.a\	-a	4ee\	lau-
16a\	e-	.	.
!LO:LB:g=original	!	!LO:LB:g=original	!
=49	=49	=49	=49
4a\	-jus	4ffn\	-da-
4f\	lau-	4ff\	-te
4f\	-da-	4dd\	lau-
4f\	-te	8.b-\	-da-
.	.	16b-\	-te
=50	=50	=50	=50
4f\	Do-	4g\	Do-
8.f\	-mi-	8g\	-mi-
.	.	8a\	-num
16f\	-num	.	.
8.e\	om-	8.b-\	om-
16e\	-nes	16b-\	-nes
8.g\	po-	8.b-\	po-
16g\	-pu-	16cc\	-pu-
=51	=51	=51	=51
4f\	-li	4a\	-li
4r	.	4r	.
4r	.	4r	.
4f\	lau-	4cc\	lau-
!LO:LB:g=original	!	!LO:LB:g=original	!
=52	=52	=52	=52
4f\	-da-	(8dd\L	-da-
.	.	8cc\J)	.
8.f\	-te	8a\	-te
.	.	8f\	lau-
16f\	lau-	.	.
4e\	-da-	(8dd\L	-da-
.	.	8cc\J)	.
8.e\	-te	8b-\	-te
.	.	8g\	e-
16e\	e-	.	.
=53	=53	=53	=53
2f\	-um	2f/	-um
4r	.	4r	.
4f\	lau-	4cc\	lau-
=54	=54	=54	=54
*	*^	*	*
4f\	-da-	.	(8dd\L	-da-
.	.	.	8cc\J)	.
8.f\	-te	.	8a\	-te
.	.	.	8f/	lau-
16f\	lau-	.	.	.
4g\	-da-	.	(8ee\	-da-
.	.	.	8dd\)	.
8.e\	-te	.	8b-\	-te
.	.	.	8g\	e-
16e\	[[lau]]	e-	.	.
!LO:LB:g=original	!	!	!LO:LB:g=original	!
=55	=55	=55	=55	=55
2f\	.	-um	2f/	-um
4r	.	.	4r	.
!	!	!	!LO:N:xstem	!
4a\	lau-	.	4ff\	lau-
*	*v	*v	*	*
=56	=56	=56	=56
!	!	!LO:N:xstem	!
4a\	-da-	4ff\	-da-
8.a\	-te	8.ff\	-te
16a\	lau-	16ff\	lau-
4a\	-da-	4ff\	-da-
8.a\	-te	8.ff\	-te
16a\	lau-	16ff\	lau-
=57	=57	=57	=57
[1a	-da-	1ff	-da-
=58	=58	=58	=58
8a\]	-te.	4ff\	-te
8r	.	.	.
4r	.	4r	.
2r	.	2r	.
==	==	==	==
*-	*-	*-	*-
!!!system-decoration: [(s1,s2)]
!!!ENC: Marta Lawrence
!!!END: 2021-01-15
!!!ENC: Andrzej Kubiczek
!!!END: 2021-01-10
